X:9
L:1/8
M:4/4
K:Dm
DE |: F2 AA E2 GE | D>E DC A,2 CD | E2 G2 A2 EC | C D D4 :|
DA | A3G c2 BG | A2 GE D2 DA | A3G c2 BG | GA A4 |
DE | F2 AA E2 GE | D>E DC A,2 CD | E2 G2 A2 EC | C D D4 :|
